src/components/00-materials/images-raw/Rocking Chair.svg

<svg width="96" height="96" viewBox="0 0 96 96" fill="none" xmlns="http://www.w3.org/2000/svg">
<path d="M67 75.1001C64.9323 69.9314 63.6579 64.4798 63.22 58.9301M30.49 36.8701L67 36.9201M19.69 73.2401C19.4231 73.4982 19.2214 73.816 19.1016 74.1675C18.9819 74.5189 18.9474 74.8938 19.0011 75.2611C19.0549 75.6285 19.1953 75.9778 19.4107 76.2802C19.6261 76.5825 19.9104 76.8293 20.24 77.0001C27.18 80.6801 37 83.0001 48 83.0001C59 83.0001 68.84 80.6801 75.78 77.0001C76.1013 76.8287 76.3783 76.585 76.5892 76.2881C76.8002 75.9913 76.9393 75.6496 76.9955 75.2898C77.0517 74.93 77.0236 74.5621 76.9133 74.2151C76.803 73.8681 76.6136 73.5514 76.36 73.2901C76.0068 72.9324 75.5486 72.6968 75.0522 72.6176C74.5557 72.5385 74.0469 72.6199 73.6 72.8501C67.53 76.0001 58.31 78.0001 48 78.0001C37.69 78.0001 28.45 76.0001 22.4 72.8201C21.9627 72.5915 21.4636 72.5089 20.976 72.5845C20.4883 72.66 20.0376 72.8898 19.69 73.2401ZM32 51.9101H66.5C67.4283 51.9101 68.3185 52.2789 68.9749 52.9352C69.6313 53.5916 70 54.4819 70 55.4101C70 56.3393 69.6316 57.2306 68.9755 57.8885C68.3194 58.5465 67.4292 58.9175 66.5 58.9201H31.75L32 51.9101Z" stroke="#00008F" stroke-width="2" stroke-linecap="round" stroke-linejoin="round"/>
<path d="M38.0001 51.9102C37.9001 36.7202 33.8101 23.1602 27.4401 14.1802C27.2177 13.8771 26.9375 13.621 26.6157 13.4266C26.2938 13.2322 25.9367 13.1034 25.5649 13.0476C25.1931 12.9919 24.814 13.0102 24.4493 13.1016C24.0846 13.193 23.7416 13.3557 23.4401 13.5802C22.842 14.0222 22.4397 14.6798 22.3184 15.4135C22.197 16.1471 22.3662 16.8992 22.7901 17.5102C28.4001 25.5102 32.0401 38.1502 32.0401 52.4502C32.1428 60.1878 30.7858 67.8754 28.0401 75.1102M63.0001 51.9502V36.9202M54.0001 51.9502V36.9202M45.0001 51.9502V36.9202" stroke="#00008F" stroke-width="2" stroke-linecap="round" stroke-linejoin="round"/>
</svg>

<svg width="96" height="96" viewBox="0 0 96 96" fill="none" xmlns="http://www.w3.org/2000/svg"><path d="M67 75.1a55.232 55.232 0 01-3.78-16.17M30.49 36.87l36.51.05M19.69 73.24a2.34 2.34 0 00.55 3.76C27.18 80.68 37 83 48 83s20.84-2.32 27.78-6a2.348 2.348 0 00.58-3.71 2.36 2.36 0 00-2.76-.44C67.53 76 58.31 78 48 78c-10.31 0-19.55-2-25.6-5.18a2.31 2.31 0 00-2.71.42zM32 51.91h34.5a3.5 3.5 0 012.475 5.979A3.51 3.51 0 0166.5 58.92H31.75l.25-7.01z" stroke="#00008F" stroke-width="2" stroke-linecap="round" stroke-linejoin="round"/><path d="M38 51.91c-.1-15.19-4.19-28.75-10.56-37.73a2.85 2.85 0 00-4-.6 2.86 2.86 0 00-.65 3.93c5.61 8 9.25 20.64 9.25 34.94a61.56 61.56 0 01-4 22.66M63 51.95V36.92m-9 15.03V36.92m-9 15.03V36.92" stroke="#00008F" stroke-width="2" stroke-linecap="round" stroke-linejoin="round"/></svg>
